src/components/FindWayIcon.svg

<svg width="42" height="71" viewBox="0 0 42 71" fill="none" xmlns="http://www.w3.org/2000/svg">
<path d="M12.4234 51.992V59.208H10.4234V51.992H12.4234ZM8.10344 52.536C8.10344 53.8373 7.8581 54.952 7.36744 55.88C6.87677 56.7973 6.14077 57.5547 5.15944 58.152C4.1781 58.7493 2.9301 59.1973 1.41544 59.496L0.727438 57.912C2.5621 57.5707 3.8901 57.0373 4.71144 56.312C5.53277 55.5867 5.94344 54.7067 5.94344 53.672V52.536H8.10344ZM7.31944 52.536V54.12H1.47944V52.536H7.31944ZM12.4234 59.8V63.656H4.88744V65.272H2.91944V62.232H10.4234V61.32H2.88744V59.8H12.4234ZM12.7754 64.664V66.2H2.91944V64.664H12.7754ZM19.3678 54.376V54.904C19.3678 55.736 19.2131 56.5093 18.9038 57.224C18.6051 57.928 18.1518 58.5413 17.5438 59.064C16.9465 59.576 16.2051 59.96 15.3198 60.216L14.4078 58.664C15.1545 58.472 15.7785 58.184 16.2798 57.8C16.7811 57.4053 17.1545 56.9627 17.3998 56.472C17.6451 55.9707 17.7678 55.448 17.7678 54.904V54.376H19.3678ZM19.7358 54.376V54.904C19.7358 55.416 19.8531 55.9013 20.0878 56.36C20.3331 56.8187 20.7065 57.2293 21.2078 57.592C21.7091 57.9547 22.3278 58.232 23.0638 58.424L22.1838 59.944C21.2985 59.72 20.5518 59.3627 19.9438 58.872C19.3358 58.3707 18.8825 57.784 18.5838 57.112C18.2851 56.4293 18.1358 55.6933 18.1358 54.904V54.376H19.7358ZM22.5998 53.4V54.968H14.9038V53.4H22.5998ZM19.7358 51.944V54.12H17.7678V51.944H19.7358ZM25.7678 52.008V60.184H23.7838V52.008H25.7678ZM27.7038 55.24V56.856H25.2238V55.24H27.7038ZM21.7998 61.464V61.816C21.7998 62.5627 21.5918 63.2507 21.1758 63.88C20.7598 64.4987 20.1518 65.016 19.3518 65.432C18.5518 65.848 17.5971 66.136 16.4878 66.296L15.7678 64.792C16.7065 64.6747 17.5011 64.4667 18.1518 64.168C18.8131 63.8587 19.3038 63.5013 19.6238 63.096C19.9545 62.6907 20.1198 62.264 20.1198 61.816V61.464H21.7998ZM22.2318 61.464V61.816C22.2318 62.2427 22.3971 62.664 22.7278 63.08C23.0585 63.4853 23.5491 63.848 24.1998 64.168C24.8505 64.4773 25.6398 64.6907 26.5678 64.808L25.8638 66.312C24.7545 66.1627 23.7998 65.8693 22.9998 65.432C22.1998 65.0053 21.5918 64.4827 21.1758 63.864C20.7598 63.2347 20.5518 62.552 20.5518 61.816V61.464H22.2318ZM25.9598 60.808V62.376H16.3918V60.808H25.9598ZM40.4082 51.992V66.328H38.4242V51.992H40.4082ZM36.1522 53.48C36.1522 55.016 35.9442 56.4133 35.5282 57.672C35.1229 58.9307 34.4349 60.0827 33.4642 61.128C32.5042 62.1733 31.2029 63.0907 29.5602 63.88L28.5362 62.312C29.8909 61.6613 30.9842 60.9253 31.8162 60.104C32.6482 59.2827 33.2509 58.3653 33.6242 57.352C33.9975 56.328 34.1842 55.1547 34.1842 53.832V53.48H36.1522ZM35.1122 53.48V55.064H29.2722V53.48H35.1122Z" fill="current"/>
<rect x="1" width="40" height="40" rx="6.27451" fill="current"/>
<path d="M25.0459 7.84315L31 15.8582M31 15.8582L25.0459 23.8733M31 15.8582L15.3137 15.8582C13.5811 15.8582 12.1765 17.2628 12.1765 18.9955L12.1765 31.3726" stroke="white" stroke-width="2" stroke-linecap="round" stroke-linejoin="round"/>
</svg>

<svg xmlns="http://www.w3.org/2000/svg" width="42" height="71" fill="none">
<path fill="#B6B6B6" d="M12.423 51.992v7.216h-2v-7.216h2Zm-4.32.544c0 1.301-.245 2.416-.736 3.344-.49.917-1.226 1.675-2.208 2.272-.98.597-2.229 1.045-3.744 1.344l-.688-1.584c1.835-.341 3.163-.875 3.984-1.6.822-.725 1.232-1.605 1.232-2.64v-1.136h2.16Zm-.784 0v1.584H1.48v-1.584h5.84Zm5.104 7.264v3.856H4.887v1.616H2.92v-3.04h7.504v-.912H2.887V59.8h9.536Zm.352 4.864V66.2H2.92v-1.536h9.856Zm6.593-10.288v.528c0 .832-.155 1.605-.464 2.32a4.961 4.961 0 0 1-1.36 1.84c-.598.512-1.339.896-2.224 1.152l-.912-1.552c.747-.192 1.37-.48 1.872-.864.501-.395.874-.837 1.12-1.328a3.525 3.525 0 0 0 .368-1.568v-.528h1.6Zm.368 0v.528c0 .512.117.997.352 1.456.245.459.618.87 1.12 1.232.501.363 1.12.64 1.856.832l-.88 1.52c-.886-.224-1.632-.581-2.24-1.072a4.787 4.787 0 0 1-1.36-1.76 5.447 5.447 0 0 1-.448-2.208v-.528h1.6ZM22.6 53.4v1.568h-7.696V53.4H22.6Zm-2.864-1.456v2.176h-1.968v-2.176h1.968Zm6.032.064v8.176h-1.984v-8.176h1.984Zm1.936 3.232v1.616h-2.48V55.24h2.48ZM21.8 61.464v.352c0 .747-.208 1.435-.624 2.064-.416.619-1.024 1.136-1.824 1.552-.8.416-1.755.704-2.864.864l-.72-1.504c.938-.117 1.733-.325 2.384-.624.661-.31 1.152-.667 1.472-1.072.33-.405.496-.832.496-1.28v-.352h1.68Zm.432 0v.352c0 .427.165.848.496 1.264.33.405.821.768 1.472 1.088.65.31 1.44.523 2.368.64l-.704 1.504c-1.11-.15-2.064-.443-2.864-.88-.8-.427-1.408-.95-1.824-1.568a3.642 3.642 0 0 1-.624-2.048v-.352h1.68Zm3.728-.656v1.568h-9.568v-1.568h9.568Zm14.448-8.816v14.336h-1.984V51.992h1.984Zm-4.256 1.488c0 1.536-.208 2.933-.624 4.192-.405 1.259-1.093 2.41-2.064 3.456-.96 1.045-2.261 1.963-3.904 2.752l-1.024-1.568c1.355-.65 2.448-1.387 3.28-2.208.832-.821 1.435-1.739 1.808-2.752.373-1.024.56-2.197.56-3.52v-.352h1.968Zm-1.04 0v1.584h-5.84V53.48h5.84Z"/>
<rect width="40" height="40" x="1" fill="#B6B6B6" rx="6.275"/>
<path stroke="#fff" stroke-linecap="round" stroke-linejoin="round" stroke-width="2" d="M25.046 7.843 31 15.858m0 0-5.954 8.015M31 15.858H15.314a3.137 3.137 0 0 0-3.137 3.137v12.378"/>
</svg>
